assets/icons/qvision/scanner.svg

<svg xmlns="http://www.w3.org/2000/svg" height="24" viewBox="0 0 24 24" width="24"><path d="M0 0h24v24H0z" fill="none"/><path d="M19.8 10.7L4.2 5l-.7 1.9L17.6 12H5c-1.1 0-2 .9-2 2v4c0 1.1.9 2 2 2h14c1.1 0 2-.9 2-2v-5.5c0-.8-.5-1.6-1.2-1.8zM7 17H5v-2h2v2zm12 0H9v-2h10v2z"/></svg>

<svg width="24" height="24" viewBox="0 0 24 24" fill="none" xmlns="http://www.w3.org/2000/svg">
<g clip-path="url(#clip0_147_3053)">
<path d="M19.8 10.7L4.2 5L3.5 6.9L17.6 12H5C3.9 12 3 12.9 3 14V18C3 19.1 3.9 20 5 20H19C20.1 20 21 19.1 21 18V12.5C21 11.7 20.5 10.9 19.8 10.7ZM7 17H5V15H7V17ZM19 17H9V15H19V17Z" fill="#323232"/>
</g>
<defs>
<clipPath id="clip0_147_3053">
<rect width="24" height="24" fill="white"/>
</clipPath>
</defs>
</svg>
